**kern
*clefF4
*k[]
*M4/4
=1-
16C
2C
16D#
4.C
=2
4D 4BB
8.D
8C
8r
16C 16AA 16FF
(4BB
=3
2BB)
4.C
8D
=4
(8D
16D)
4C
16C
8C
16BB-
4r
16BB-
=5
16AA
16BB
2C
8.BB 8.GG 8.EE
16AA
8BB
=6
2C
8D
4E 4C 4AA
16D 16BB 16GG
16C
=7
16D
8C
16C
2.BB
=8
16C
16C
2D
16D
4C
16BB
=9
16r
16C
2.r
8C
=10
1r
=11
*-